Obsidian/actions/16s/im-youtube.svg

<svg viewBox="0 0 16 16" xmlns="http://www.w3.org/2000/svg"><path d="m2 3c-.554 0-1 .446-1 1v8c0 .554.446 1 1 1h12c.554 0 1-.446 1-1v-8c0-.554-.446-1-1-1zm5 3 3 2-3 2z" fill="#f2f2f2"/></svg>

<svg xmlns="http://www.w3.org/2000/svg" viewBox="0 0 16 16">
  <defs id="defs3051">
    <style type="text/css" id="current-color-scheme">
      .ColorScheme-Text {
        color:#f2f2f2;
      }
      </style>
  </defs>
 <path style="fill:currentColor;fill-opacity:1;stroke:none" 
     d="M 2 3 C 1.446 3 1 3.446 1 4 L 1 12 C 1 12.554 1.446 13 2 13 L 14 13 C 14.554 13 15 12.554 15 12 L 15 4 C 15 3.446 14.554 3 14 3 L 2 3 z M 7 6 L 10 8 L 7 10 L 7 6 z "
     class="ColorScheme-Text"
     />
</svg>
